X: 6
T: John Doherty's
R: reel
M: 4/4
L: 1/8
K: Ador
| M:3/2 EAAB cABd cAGA | G3F GAGD| M:4/4 EAAB cABd|1 cABG ABAG:|2 cABG A2||(3B^cd|~e3^c d2(3B^cd|efe^c d2(3B^cd|~e3^c dged|cABG A2 (3B^cd|~e3^c d2(3B^cd|efe^c d2(3B^cd|eage dged|cABd cAAG||


Tune 2120	Setting 2120

